X: 1
T: String Quartet in F Major opus 74 no 2 mvt 3
C: Franz Joseph Haydn
%%abc-version 2.0
%%abcx-abcm2ps-target-version 5.9.1 (29 Sep 2008)
%%abc-creator hum2abc beta
%%abcx-conversion-date 2021/02/14 14:38:12
%%abc-copyright Copyright (c) 1994, 2000 Center for Computer Assisted Research in the Humanities
%%abc-edited-by Frances Bennion
%%abcx-initial-encoding-date 1997/04/15
%%gracespace 0 6 6
%%humdrum-veritas 3706190977
%%humdrum-veritas-data 2026394411
%%linebreak <none>
%%barnumbers 0
L: 1/4
M: 3/4
N: Derived from op74n2-03.krn
Q: "Menuetto: Allegro"
%%staves [1 2 3 4]
V: 1
V: 2
V: 3 clef=alto
V: 4 clef=bass
K: F
[V:1]z2 C [I:setbarnb1] |
[V:2]z2 z |
[V:3]z2 z |
[V:4]z2 z |
[V:1]A, C F |
[V:2]F z C |
[V:3]A, z A, |
[V:4]F, z F, |
[V:1]E/8F/8G3// G/8A/8B3// G/E/ |
[V:2]B, z B, |
[V:3]G, z G, |
[V:4]C, z C, |
[V:1]F A c |
[V:2]A, z A |
[V:3]A, z A, |
[V:4]F, z F, |
[V:1]^c2 A |
[V:2]G2 G |
[V:3]A,2 ^C |
[V:4]E,2 E, |
[V:1]d f a |
[V:2]F z F- |
[V:3]D z D- |
[V:4]D, z D, |
[V:1]=B/8c/8d3// d/8e/8f3// f/e/ |
[V:2]F D C |
[V:3]D =B, C |
[V:4]G,2 A, |
[V:1]e/d/ d/c/ c/=B/ |
[V:2]A G F |
[V:3]F E D |
[V:4]F, G, G, |
[V:1]c z G |
[V:2]E z E |
[V:3]C z z |
[V:4]C, z C |
[V:1]_A2 =B |
[V:2]F2 _A |
[V:3]z z D |
[V:4]=B, _A, F, |
[V:1]c z e |
[V:2]G z c |
[V:3]C z C |
[V:4]E,/8F,/8G,3// C,/8D,/8E,3// z |
[V:1]f2 =B |
[V:2]=B _A F |
[V:3]_D3 |
[V:4]z3 |
[V:1]c z A |
[V:2]E/8F/8G3// C/8D/8E3// C |
[V:3]C z _E |
[V:4]z z F, |
[V:1]B z d |
[V:2]D z B |
[V:3]D/8_E/8F3// B,/8C/8D3// z |
[V:4]B,, z ^F,, |
[V:1]^c d =c |
[V:2]A B A |
[V:3]z z D- |
[V:4]^F,2 ^F,, |
[V:1]B A G |
[V:2]G ^F G |
[V:3]D C D- |
[V:4]G,, A,, B,, |
[V:1]F E D |
[V:2]G,2 =B, |
[V:3]D C F, |
[V:4]=B,, C, D, |
[V:1]C =B, _B, |
[V:2]C z z |
[V:3][C,3G,3] |
[V:4]E,3 |
[V:1]A, C F |
[V:2]F z C |
[V:3][A,C,] z A, |
[V:4]F, z F, |
[V:1]E/8F/8G3// G/8A/8B3// G/E/ |
[V:2]B, z C |
[V:3]G, z G, |
[V:4]C, z B,, |
[V:1]F A c |
[V:2]F3 |
[V:3]C3 |
[V:4]A,,3 |
[V:1]^c2 d |
[V:2]F3 |
[V:3]B,3 |
[V:4]B,,3 |
[V:1]G d g |
[V:2]z z G |
[V:3]z z D |
[V:4]z z B,, |
[V:1]f3 |
[V:2]B3- |
[V:3]G3- |
[V:4]C,3- |
[V:1]e2 c |
[V:2]B2 z |
[V:3]G2 z |
[V:4]C,2 z |
[V:1]f a c' |
[V:2]A z A |
[V:3]F z F |
[V:4]z3 |
[V:1]e/8f/8g3// g/8a/8b3// b/a/ |
[V:2]G E F |
[V:3]C2 D |
[V:4]z3 |
[V:1]a/g/ g/f/ f/e/ |
[V:2]B A G |
[V:3]B, C C |
[V:4]z3 |
[V:1]z3 |
[V:2]z3 |
[V:3]z3 |
[V:4]C,,/D,,/ D,,/E,,/ E,,/F,,/ |
[V:1]a/g/ g/f/ f/e/ |
[V:2]B A G |
[V:3]B, C C |
[V:4]z3 |
[V:1]z3 |
[V:2]z3 |
[V:3]z3 |
[V:4]C,,/D,,/ D,,/E,,/ E,,/F,,/ |
[V:1]a/g/ g/f/ f/e/ |
[V:2]B A G |
[V:3]B, C ^C |
[V:4]z3 |
[V:1]e/d/ d/c/ c/=B/ |
[V:2]F G _A |
[V:3]D E F |
[V:4]z3 |
[V:1]c d e |
[V:2]G/F/ F/E/ E/D/ |
[V:3]E/D/ D/C/ C/B,/ |
[V:4]z3 |
[V:1]f g a |
[V:2]D/C/ C/B,/ B,/A,/ |
[V:3]B,/A,/ A,/G,/ G,/F,/ |
[V:4]z3 |
[V:1]b2 a |
[V:2]C2 c |
[V:3]E,/F,/ F,/G,/ G,/A,/ |
[V:4]C,,/D,,/ D,,/E,,/ E,,/F,,/ |
[V:1]a/g/ g/f/ f/e/ |
[V:2]c/B/ B/A/ A/G/ |
[V:3]B, C C |
[V:4]B,, C, C, |
[V:1]f z C |
[V:2]A z z |
[V:3]F, z z |
[V:4]F, z z |
[V:1]A, C F |
[V:2][FcA,] z z |
[V:3][FA,] z z |
[V:4]F, z z |
[V:1]B, D G |
[V:2][dFB,] z z |
[V:3][B,D] z z |
[V:4]B,, z z |
[V:1]G, B, E |
[V:2][EG,] z z |
[V:3][C,B,] z z |
[V:4]C, z z |
[V:1]F z z |
[V:2][FA,] z _A, |
[V:3][A,C,] z z |
[V:4]F,, z z |
[V:1]z3 |
[V:2]_D3 |
[V:3]F,3 |
[V:4]_D,, _D, D, |
[V:1]z3 |
[V:2]_E3 |
[V:3]_G,3 |
[V:4]_D,, _D, D, |
[V:1]z3 |
[V:2]C B, C |
[V:3]_E, _D, E, |
[V:4]_D,, _D, D, |
[V:1]z/_a/ _g/f/ _e/_d/ |
[V:2]_D3 |
[V:3]F,3 |
[V:4]_D,, _D, D, |
[V:1]c/B/ c/_d/ _e/f/ |
[V:2]_E3 |
[V:3]_G,3 |
[V:4]_D,, _D, D, |
[V:1]_g/_a/ b/c'/ _d'/_e'/ |
[V:2]C B, C |
[V:3]_E, _D, E, |
[V:4]_D,, _D, D, |
[V:1]f' _d' _a |
[V:2]_D F _A |
[V:3]F,3- |
[V:4]_D,,3- |
[V:1]f _d _A |
[V:2]_A3 |
[V:3]F,3 |
[V:4]D,,2 _D, |
[V:1]G3 |
[V:2]_D3 |
[V:3]B,3 |
[V:4]_E, _D, B,, |
[V:1]_A3 |
[V:2]_E3 |
[V:3]C3 |
[V:4]_A,, _E,, C,, |
[V:1]B _d G |
[V:2]F2 _D |
[V:3]B,3 |
[V:4]_D,,2 _E,, |
[V:1]_A z2 |
[V:2]C z _A, |
[V:3]C z z |
[V:4]_A,, z z |
[V:1]z/c/ _d/_e/ f/_g/ |
[V:2]_G3 |
[V:3]_E3 |
[V:4]_A,, A,, A,, |
[V:1]g/_a/ b/a/ _g/f/ |
[V:2]F3 |
[V:3]_D3 |
[V:4]_A,, A,, A,, |
[V:1]g/_a/ b/c'/ _d'/g/ |
[V:2]_D G, D |
[V:3]B,3 |
[V:4]_A,, A,, A,, |
[V:1]b/_a/ g/a/ g/a/ |
[V:2]C z z |
[V:3]C z z |
[V:4]_A,, z z |
[V:1]b/_a/ g/a/ g/a/ |
[V:2]z z _A, |
[V:3]z3 |
[V:4]z3 |
[V:1]b/_a/ _g/f/ _e/_d/ |
[V:2]_D3 |
[V:3]F,3 |
[V:4]_D,, _D, D, |
[V:1]c/B/ c/_d/ _e/f/ |
[V:2]_E3 |
[V:3]_G,3 |
[V:4]_D,, _D, D, |
[V:1]_g/_a/ b/c'/ _d'/_e'/ |
[V:2]C B, C |
[V:3]_E, _D, E, |
[V:4]_D,, _D, D, |
[V:1]f' _d' _a |
[V:2]_D F _A |
[V:3]F,3- |
[V:4]_D,,3- |
[V:1]f _d _A |
[V:2]_A3 |
[V:3]F,3 |
[V:4]D,,3 |
[V:1]G3 |
[V:2]_D3 |
[V:3]B,3 |
[V:4]_A,, _D, E, |
[V:1]_G2 F |
[V:2]C2 _D |
[V:3]_E2 _D |
[V:4]_A,, =A,, B,, |
[V:1]_E _D C |
[V:2]_G F _E |
[V:3]B, _A, _G, |
[V:4]_G,, _A,, A,, |
[V:1]_D2 z |
[V:2]_D2 _A, |
[V:3]F,2 z |
[V:4]_D,,2 z |
[V:1]z/c/ _d/_e/ f/_g/ |
[V:2]_G3 |
[V:3]_E3 |
[V:4]_A,,3 |
[V:1]g/_a/ b/a/ _g/f/ |
[V:2]F3 |
[V:3]_D3 |
[V:4]_A,,3 |
[V:1]d/_e/ _a/_g/ f/e/ |
[V:2]_G3 |
[V:3]C3 |
[V:4]A,,3 |
[V:1]c/_d/ _g/f/ _e/d/ |
[V:2]F3 |
[V:3]_D3 |
[V:4]B,,3 |
[V:1]e/f/ b/_a/ g/f/ |
[V:2]_A3 |
[V:3]D3 |
[V:4]=B,,3 |
[V:1]e g c |
[V:2]G E E |
[V:3]E z z |
[V:4]C,3 |
[V:1]=B3 |
[V:2]F3 |
[V:3]z3 |
[V:4]z/_A,/ G,/F,/ E,/D,/ |
[V:1]c z =B |
[V:2]E z F |
[V:3]G, z z |
[V:4]C,/_A,,/ G,,/F,,/ E,,/D,,/ |
[V:1]c z =B |
[V:2]E z F |
[V:3]G, z z |
[V:4]C,,/_A,,/ G,,/F,,/ E,,/D,,/ |
[V:1]c z =B |
[V:2]E z F |
[V:3]G, z z |
[V:4]C,,/_A,,/ G,,/F,,/ E,,/D,,/ |
[V:1]c z z |]
[V:2]E z z |]
[V:3]G, z z |]
[V:4]C,, z z |]

